img/generated.svg

<svg viewBox="0 0 256 256" width="256" height="256" shape-rendering="crispEdges" xmlns="http://www.w3.org/2000/svg" version="1.1"><path fill="#fff" d="M0,0V256H256V0H0Z"/><path transform="matrix(6.0000,0,0,6.0000,41,41)" d="M0,0h1v1h-1v-1zM1,0h1v1h-1v-1zM2,0h1v1h-1v-1zM3,0h1v1h-1v-1zM4,0h1v1h-1v-1zM5,0h1v1h-1v-1zM6,0h1v1h-1v-1zM8,0h1v1h-1v-1zM10,0h1v1h-1v-1zM13,0h1v1h-1v-1zM14,0h1v1h-1v-1zM17,0h1v1h-1v-1zM18,0h1v1h-1v-1zM19,0h1v1h-1v-1zM20,0h1v1h-1v-1zM22,0h1v1h-1v-1zM23,0h1v1h-1v-1zM24,0h1v1h-1v-1zM25,0h1v1h-1v-1zM26,0h1v1h-1v-1zM27,0h1v1h-1v-1zM28,0h1v1h-1v-1zM0,1h1v1h-1v-1zM6,1h1v1h-1v-1zM9,1h1v1h-1v-1zM12,1h1v1h-1v-1zM13,1h1v1h-1v-1zM17,1h1v1h-1v-1zM18,1h1v1h-1v-1zM19,1h1v1h-1v-1zM20,1h1v1h-1v-1zM22,1h1v1h-1v-1zM28,1h1v1h-1v-1zM0,2h1v1h-1v-1zM2,2h1v1h-1v-1zM3,2h1v1h-1v-1zM4,2h1v1h-1v-1zM6,2h1v1h-1v-1zM9,2h1v1h-1v-1zM10,2h1v1h-1v-1zM12,2h1v1h-1v-1zM17,2h1v1h-1v-1zM18,2h1v1h-1v-1zM20,2h1v1h-1v-1zM22,2h1v1h-1v-1zM24,2h1v1h-1v-1zM25,2h1v1h-1v-1zM26,2h1v1h-1v-1zM28,2h1v1h-1v-1zM0,3h1v1h-1v-1zM2,3h1v1h-1v-1zM3,3h1v1h-1v-1zM4,3h1v1h-1v-1zM6,3h1v1h-1v-1zM8,3h1v1h-1v-1zM10,3h1v1h-1v-1zM11,3h1v1h-1v-1zM13,3h1v1h-1v-1zM15,3h1v1h-1v-1zM17,3h1v1h-1v-1zM18,3h1v1h-1v-1zM22,3h1v1h-1v-1zM24,3h1v1h-1v-1zM25,3h1v1h-1v-1zM26,3h1v1h-1v-1zM28,3h1v1h-1v-1zM0,4h1v1h-1v-1zM2,4h1v1h-1v-1zM3,4h1v1h-1v-1zM4,4h1v1h-1v-1zM6,4h1v1h-1v-1zM8,4h1v1h-1v-1zM9,4h1v1h-1v-1zM10,4h1v1h-1v-1zM11,4h1v1h-1v-1zM14,4h1v1h-1v-1zM15,4h1v1h-1v-1zM16,4h1v1h-1v-1zM17,4h1v1h-1v-1zM18,4h1v1h-1v-1zM19,4h1v1h-1v-1zM20,4h1v1h-1v-1zM22,4h1v1h-1v-1zM24,4h1v1h-1v-1zM25,4h1v1h-1v-1zM26,4h1v1h-1v-1zM28,4h1v1h-1v-1zM0,5h1v1h-1v-1zM6,5h1v1h-1v-1zM8,5h1v1h-1v-1zM13,5h1v1h-1v-1zM14,5h1v1h-1v-1zM15,5h1v1h-1v-1zM17,5h1v1h-1v-1zM19,5h1v1h-1v-1zM20,5h1v1h-1v-1zM22,5h1v1h-1v-1zM28,5h1v1h-1v-1zM0,6h1v1h-1v-1zM1,6h1v1h-1v-1zM2,6h1v1h-1v-1zM3,6h1v1h-1v-1zM4,6h1v1h-1v-1zM5,6h1v1h-1v-1zM6,6h1v1h-1v-1zM8,6h1v1h-1v-1zM10,6h1v1h-1v-1zM12,6h1v1h-1v-1zM14,6h1v1h-1v-1zM16,6h1v1h-1v-1zM18,6h1v1h-1v-1zM20,6h1v1h-1v-1zM22,6h1v1h-1v-1zM23,6h1v1h-1v-1zM24,6h1v1h-1v-1zM25,6h1v1h-1v-1zM26,6h1v1h-1v-1zM27,6h1v1h-1v-1zM28,6h1v1h-1v-1zM8,7h1v1h-1v-1zM10,7h1v1h-1v-1zM13,7h1v1h-1v-1zM15,7h1v1h-1v-1zM16,7h1v1h-1v-1zM17,7h1v1h-1v-1zM20,7h1v1h-1v-1zM0,8h1v1h-1v-1zM1,8h1v1h-1v-1zM2,8h1v1h-1v-1zM4,8h1v1h-1v-1zM6,8h1v1h-1v-1zM8,8h1v1h-1v-1zM11,8h1v1h-1v-1zM13,8h1v1h-1v-1zM21,8h1v1h-1v-1zM22,8h1v1h-1v-1zM23,8h1v1h-1v-1zM24,8h1v1h-1v-1zM25,8h1v1h-1v-1zM28,8h1v1h-1v-1zM0,9h1v1h-1v-1zM1,9h1v1h-1v-1zM2,9h1v1h-1v-1zM4,9h1v1h-1v-1zM7,9h1v1h-1v-1zM10,9h1v1h-1v-1zM13,9h1v1h-1v-1zM14,9h1v1h-1v-1zM16,9h1v1h-1v-1zM18,9h1v1h-1v-1zM21,9h1v1h-1v-1zM22,9h1v1h-1v-1zM24,9h1v1h-1v-1zM25,9h1v1h-1v-1zM26,9h1v1h-1v-1zM1,10h1v1h-1v-1zM2,10h1v1h-1v-1zM6,10h1v1h-1v-1zM7,10h1v1h-1v-1zM8,10h1v1h-1v-1zM9,10h1v1h-1v-1zM10,10h1v1h-1v-1zM14,10h1v1h-1v-1zM17,10h1v1h-1v-1zM18,10h1v1h-1v-1zM19,10h1v1h-1v-1zM20,10h1v1h-1v-1zM25,10h1v1h-1v-1zM26,10h1v1h-1v-1zM0,11h1v1h-1v-1zM1,11h1v1h-1v-1zM5,11h1v1h-1v-1zM7,11h1v1h-1v-1zM11,11h1v1h-1v-1zM13,11h1v1h-1v-1zM15,11h1v1h-1v-1zM17,11h1v1h-1v-1zM20,11h1v1h-1v-1zM21,11h1v1h-1v-1zM22,11h1v1h-1v-1zM23,11h1v1h-1v-1zM28,11h1v1h-1v-1zM5,12h1v1h-1v-1zM6,12h1v1h-1v-1zM12,12h1v1h-1v-1zM14,12h1v1h-1v-1zM16,12h1v1h-1v-1zM17,12h1v1h-1v-1zM21,12h1v1h-1v-1zM25,12h1v1h-1v-1zM26,12h1v1h-1v-1zM0,13h1v1h-1v-1zM2,13h1v1h-1v-1zM4,13h1v1h-1v-1zM5,13h1v1h-1v-1zM8,13h1v1h-1v-1zM12,13h1v1h-1v-1zM15,13h1v1h-1v-1zM18,13h1v1h-1v-1zM19,13h1v1h-1v-1zM20,13h1v1h-1v-1zM21,13h1v1h-1v-1zM22,13h1v1h-1v-1zM23,13h1v1h-1v-1zM24,13h1v1h-1v-1zM25,13h1v1h-1v-1zM26,13h1v1h-1v-1zM27,13h1v1h-1v-1zM0,14h1v1h-1v-1zM2,14h1v1h-1v-1zM3,14h1v1h-1v-1zM4,14h1v1h-1v-1zM5,14h1v1h-1v-1zM6,14h1v1h-1v-1zM7,14h1v1h-1v-1zM8,14h1v1h-1v-1zM9,14h1v1h-1v-1zM10,14h1v1h-1v-1zM11,14h1v1h-1v-1zM12,14h1v1h-1v-1zM14,14h1v1h-1v-1zM15,14h1v1h-1v-1zM18,14h1v1h-1v-1zM25,14h1v1h-1v-1zM26,14h1v1h-1v-1zM28,14h1v1h-1v-1zM7,15h1v1h-1v-1zM8,15h1v1h-1v-1zM9,15h1v1h-1v-1zM10,15h1v1h-1v-1zM13,15h1v1h-1v-1zM14,15h1v1h-1v-1zM16,15h1v1h-1v-1zM17,15h1v1h-1v-1zM18,15h1v1h-1v-1zM20,15h1v1h-1v-1zM21,15h1v1h-1v-1zM22,15h1v1h-1v-1zM23,15h1v1h-1v-1zM25,15h1v1h-1v-1zM26,15h1v1h-1v-1zM27,15h1v1h-1v-1zM28,15h1v1h-1v-1zM4,16h1v1h-1v-1zM6,16h1v1h-1v-1zM10,16h1v1h-1v-1zM12,16h1v1h-1v-1zM18,16h1v1h-1v-1zM19,16h1v1h-1v-1zM20,16h1v1h-1v-1zM22,16h1v1h-1v-1zM24,16h1v1h-1v-1zM25,16h1v1h-1v-1zM27,16h1v1h-1v-1zM0,17h1v1h-1v-1zM3,17h1v1h-1v-1zM5,17h1v1h-1v-1zM8,17h1v1h-1v-1zM9,17h1v1h-1v-1zM11,17h1v1h-1v-1zM14,17h1v1h-1v-1zM20,17h1v1h-1v-1zM22,17h1v1h-1v-1zM23,17h1v1h-1v-1zM26,17h1v1h-1v-1zM0,18h1v1h-1v-1zM1,18h1v1h-1v-1zM4,18h1v1h-1v-1zM6,18h1v1h-1v-1zM7,18h1v1h-1v-1zM9,18h1v1h-1v-1zM13,18h1v1h-1v-1zM16,18h1v1h-1v-1zM17,18h1v1h-1v-1zM22,18h1v1h-1v-1zM26,18h1v1h-1v-1zM27,18h1v1h-1v-1zM1,19h1v1h-1v-1zM2,19h1v1h-1v-1zM4,19h1v1h-1v-1zM7,19h1v1h-1v-1zM8,19h1v1h-1v-1zM9,19h1v1h-1v-1zM12,19h1v1h-1v-1zM14,19h1v1h-1v-1zM15,19h1v1h-1v-1zM16,19h1v1h-1v-1zM17,19h1v1h-1v-1zM18,19h1v1h-1v-1zM19,19h1v1h-1v-1zM22,19h1v1h-1v-1zM23,19h1v1h-1v-1zM24,19h1v1h-1v-1zM28,19h1v1h-1v-1zM1,20h1v1h-1v-1zM2,20h1v1h-1v-1zM5,20h1v1h-1v-1zM6,20h1v1h-1v-1zM7,20h1v1h-1v-1zM10,20h1v1h-1v-1zM11,20h1v1h-1v-1zM12,20h1v1h-1v-1zM14,20h1v1h-1v-1zM16,20h1v1h-1v-1zM20,20h1v1h-1v-1zM21,20h1v1h-1v-1zM22,20h1v1h-1v-1zM23,20h1v1h-1v-1zM24,20h1v1h-1v-1zM26,20h1v1h-1v-1zM28,20h1v1h-1v-1zM8,21h1v1h-1v-1zM9,21h1v1h-1v-1zM11,21h1v1h-1v-1zM14,21h1v1h-1v-1zM16,21h1v1h-1v-1zM20,21h1v1h-1v-1zM24,21h1v1h-1v-1zM25,21h1v1h-1v-1zM26,21h1v1h-1v-1zM0,22h1v1h-1v-1zM1,22h1v1h-1v-1zM2,22h1v1h-1v-1zM3,22h1v1h-1v-1zM4,22h1v1h-1v-1zM5,22h1v1h-1v-1zM6,22h1v1h-1v-1zM11,22h1v1h-1v-1zM12,22h1v1h-1v-1zM13,22h1v1h-1v-1zM14,22h1v1h-1v-1zM19,22h1v1h-1v-1zM20,22h1v1h-1v-1zM22,22h1v1h-1v-1zM24,22h1v1h-1v-1zM27,22h1v1h-1v-1zM28,22h1v1h-1v-1zM0,23h1v1h-1v-1zM6,23h1v1h-1v-1zM9,23h1v1h-1v-1zM10,23h1v1h-1v-1zM11,23h1v1h-1v-1zM12,23h1v1h-1v-1zM13,23h1v1h-1v-1zM15,23h1v1h-1v-1zM20,23h1v1h-1v-1zM24,23h1v1h-1v-1zM26,23h1v1h-1v-1zM27,23h1v1h-1v-1zM0,24h1v1h-1v-1zM2,24h1v1h-1v-1zM3,24h1v1h-1v-1zM4,24h1v1h-1v-1zM6,24h1v1h-1v-1zM8,24h1v1h-1v-1zM9,24h1v1h-1v-1zM10,24h1v1h-1v-1zM13,24h1v1h-1v-1zM14,24h1v1h-1v-1zM15,24h1v1h-1v-1zM17,24h1v1h-1v-1zM18,24h1v1h-1v-1zM20,24h1v1h-1v-1zM21,24h1v1h-1v-1zM22,24h1v1h-1v-1zM23,24h1v1h-1v-1zM24,24h1v1h-1v-1zM26,24h1v1h-1v-1zM28,24h1v1h-1v-1zM0,25h1v1h-1v-1zM2,25h1v1h-1v-1zM3,25h1v1h-1v-1zM4,25h1v1h-1v-1zM6,25h1v1h-1v-1zM11,25h1v1h-1v-1zM13,25h1v1h-1v-1zM16,25h1v1h-1v-1zM18,25h1v1h-1v-1zM19,25h1v1h-1v-1zM20,25h1v1h-1v-1zM21,25h1v1h-1v-1zM22,25h1v1h-1v-1zM24,25h1v1h-1v-1zM27,25h1v1h-1v-1zM0,26h1v1h-1v-1zM2,26h1v1h-1v-1zM3,26h1v1h-1v-1zM4,26h1v1h-1v-1zM6,26h1v1h-1v-1zM8,26h1v1h-1v-1zM9,26h1v1h-1v-1zM10,26h1v1h-1v-1zM13,26h1v1h-1v-1zM14,26h1v1h-1v-1zM15,26h1v1h-1v-1zM17,26h1v1h-1v-1zM19,26h1v1h-1v-1zM20,26h1v1h-1v-1zM26,26h1v1h-1v-1zM27,26h1v1h-1v-1zM0,27h1v1h-1v-1zM6,27h1v1h-1v-1zM8,27h1v1h-1v-1zM9,27h1v1h-1v-1zM13,27h1v1h-1v-1zM17,27h1v1h-1v-1zM20,27h1v1h-1v-1zM23,27h1v1h-1v-1zM26,27h1v1h-1v-1zM0,28h1v1h-1v-1zM1,28h1v1h-1v-1zM2,28h1v1h-1v-1zM3,28h1v1h-1v-1zM4,28h1v1h-1v-1zM5,28h1v1h-1v-1zM6,28h1v1h-1v-1zM8,28h1v1h-1v-1zM11,28h1v1h-1v-1zM12,28h1v1h-1v-1zM13,28h1v1h-1v-1zM14,28h1v1h-1v-1zM15,28h1v1h-1v-1zM18,28h1v1h-1v-1zM23,28h1v1h-1v-1zM24,28h1v1h-1v-1zM25,28h1v1h-1v-1zM26,28h1v1h-1v-1zM27,28h1v1h-1v-1z"/></svg>

<svg viewBox="0 0 256 256" width="256" height="256" shape-rendering="crispEdges" xmlns="http://www.w3.org/2000/svg" version="1.1"><path fill="#fff" d="M0,0V256H256V0H0Z"/><path transform="matrix(6.0000,0,0,6.0000,41,41)" d="M0,0V1H1V0H0ZM1,0V1H2V0H1ZM2,0V1H3V0H2ZM3,0V1H4V0H3ZM4,0V1H5V0H4ZM5,0V1H6V0H5ZM6,0V1H7V0H6ZM8,0V1H9V0H8ZM10,0V1H11V0H10ZM13,0V1H14V0H13ZM14,0V1H15V0H14ZM17,0V1H18V0H17ZM18,0V1H19V0H18ZM19,0V1H20V0H19ZM20,0V1H21V0H20ZM22,0V1H23V0H22ZM23,0V1H24V0H23ZM24,0V1H25V0H24ZM25,0V1H26V0H25ZM26,0V1H27V0H26ZM27,0V1H28V0H27ZM28,0V1H29V0H28ZM0,1V2H1V1H0ZM6,1V2H7V1H6ZM9,1V2H10V1H9ZM12,1V2H13V1H12ZM13,1V2H14V1H13ZM17,1V2H18V1H17ZM18,1V2H19V1H18ZM19,1V2H20V1H19ZM20,1V2H21V1H20ZM22,1V2H23V1H22ZM28,1V2H29V1H28ZM0,2V3H1V2H0ZM2,2V3H3V2H2ZM3,2V3H4V2H3ZM4,2V3H5V2H4ZM6,2V3H7V2H6ZM9,2V3H10V2H9ZM10,2V3H11V2H10ZM12,2V3H13V2H12ZM17,2V3H18V2H17ZM18,2V3H19V2H18ZM20,2V3H21V2H20ZM22,2V3H23V2H22ZM24,2V3H25V2H24ZM25,2V3H26V2H25ZM26,2V3H27V2H26ZM28,2V3H29V2H28ZM0,3V4H1V3H0ZM2,3V4H3V3H2ZM3,3V4H4V3H3ZM4,3V4H5V3H4ZM6,3V4H7V3H6ZM8,3V4H9V3H8ZM10,3V4H11V3H10ZM11,3V4H12V3H11ZM13,3V4H14V3H13ZM15,3V4H16V3H15ZM17,3V4H18V3H17ZM18,3V4H19V3H18ZM22,3V4H23V3H22ZM24,3V4H25V3H24ZM25,3V4H26V3H25ZM26,3V4H27V3H26ZM28,3V4H29V3H28ZM0,4V5H1V4H0ZM2,4V5H3V4H2ZM3,4V5H4V4H3ZM4,4V5H5V4H4ZM6,4V5H7V4H6ZM8,4V5H9V4H8ZM9,4V5H10V4H9ZM10,4V5H11V4H10ZM11,4V5H12V4H11ZM14,4V5H15V4H14ZM15,4V5H16V4H15ZM16,4V5H17V4H16ZM17,4V5H18V4H17ZM18,4V5H19V4H18ZM19,4V5H20V4H19ZM20,4V5H21V4H20ZM22,4V5H23V4H22ZM24,4V5H25V4H24ZM25,4V5H26V4H25ZM26,4V5H27V4H26ZM28,4V5H29V4H28ZM0,5V6H1V5H0ZM6,5V6H7V5H6ZM8,5V6H9V5H8ZM13,5V6H14V5H13ZM14,5V6H15V5H14ZM15,5V6H16V5H15ZM17,5V6H18V5H17ZM19,5V6H20V5H19ZM20,5V6H21V5H20ZM22,5V6H23V5H22ZM28,5V6H29V5H28ZM0,6V7H1V6H0ZM1,6V7H2V6H1ZM2,6V7H3V6H2ZM3,6V7H4V6H3ZM4,6V7H5V6H4ZM5,6V7H6V6H5ZM6,6V7H7V6H6ZM8,6V7H9V6H8ZM10,6V7H11V6H10ZM12,6V7H13V6H12ZM14,6V7H15V6H14ZM16,6V7H17V6H16ZM18,6V7H19V6H18ZM20,6V7H21V6H20ZM22,6V7H23V6H22ZM23,6V7H24V6H23ZM24,6V7H25V6H24ZM25,6V7H26V6H25ZM26,6V7H27V6H26ZM27,6V7H28V6H27ZM28,6V7H29V6H28ZM8,7V8H9V7H8ZM10,7V8H11V7H10ZM13,7V8H14V7H13ZM15,7V8H16V7H15ZM16,7V8H17V7H16ZM17,7V8H18V7H17ZM20,7V8H21V7H20ZM0,8V9H1V8H0ZM1,8V9H2V8H1ZM2,8V9H3V8H2ZM4,8V9H5V8H4ZM6,8V9H7V8H6ZM8,8V9H9V8H8ZM11,8V9H12V8H11ZM13,8V9H14V8H13ZM21,8V9H22V8H21ZM22,8V9H23V8H22ZM23,8V9H24V8H23ZM24,8V9H25V8H24ZM25,8V9H26V8H25ZM28,8V9H29V8H28ZM0,9V10H1V9H0ZM1,9V10H2V9H1ZM2,9V10H3V9H2ZM4,9V10H5V9H4ZM7,9V10H8V9H7ZM10,9V10H11V9H10ZM13,9V10H14V9H13ZM14,9V10H15V9H14ZM16,9V10H17V9H16ZM18,9V10H19V9H18ZM21,9V10H22V9H21ZM22,9V10H23V9H22ZM24,9V10H25V9H24ZM25,9V10H26V9H25ZM26,9V10H27V9H26ZM1,10V11H2V10H1ZM2,10V11H3V10H2ZM6,10V11H7V10H6ZM7,10V11H8V10H7ZM8,10V11H9V10H8ZM9,10V11H10V10H9ZM10,10V11H11V10H10ZM14,10V11H15V10H14ZM17,10V11H18V10H17ZM18,10V11H19V10H18ZM19,10V11H20V10H19ZM20,10V11H21V10H20ZM25,10V11H26V10H25ZM26,10V11H27V10H26ZM0,11V12H1V11H0ZM1,11V12H2V11H1ZM5,11V12H6V11H5ZM7,11V12H8V11H7ZM11,11V12H12V11H11ZM13,11V12H14V11H13ZM15,11V12H16V11H15ZM17,11V12H18V11H17ZM20,11V12H21V11H20ZM21,11V12H22V11H21ZM22,11V12H23V11H22ZM23,11V12H24V11H23ZM28,11V12H29V11H28ZM5,12V13H6V12H5ZM6,12V13H7V12H6ZM12,12V13H13V12H12ZM14,12V13H15V12H14ZM16,12V13H17V12H16ZM17,12V13H18V12H17ZM21,12V13H22V12H21ZM25,12V13H26V12H25ZM26,12V13H27V12H26ZM0,13V14H1V13H0ZM2,13V14H3V13H2ZM4,13V14H5V13H4ZM5,13V14H6V13H5ZM8,13V14H9V13H8ZM12,13V14H13V13H12ZM15,13V14H16V13H15ZM18,13V14H19V13H18ZM19,13V14H20V13H19ZM20,13V14H21V13H20ZM21,13V14H22V13H21ZM22,13V14H23V13H22ZM23,13V14H24V13H23ZM24,13V14H25V13H24ZM25,13V14H26V13H25ZM26,13V14H27V13H26ZM27,13V14H28V13H27ZM0,14V15H1V14H0ZM2,14V15H3V14H2ZM3,14V15H4V14H3ZM4,14V15H5V14H4ZM5,14V15H6V14H5ZM6,14V15H7V14H6ZM7,14V15H8V14H7ZM8,14V15H9V14H8ZM9,14V15H10V14H9ZM10,14V15H11V14H10ZM11,14V15H12V14H11ZM12,14V15H13V14H12ZM14,14V15H15V14H14ZM15,14V15H16V14H15ZM18,14V15H19V14H18ZM25,14V15H26V14H25ZM26,14V15H27V14H26ZM28,14V15H29V14H28ZM7,15V16H8V15H7ZM8,15V16H9V15H8ZM9,15V16H10V15H9ZM10,15V16H11V15H10ZM13,15V16H14V15H13ZM14,15V16H15V15H14ZM16,15V16H17V15H16ZM17,15V16H18V15H17ZM18,15V16H19V15H18ZM20,15V16H21V15H20ZM21,15V16H22V15H21ZM22,15V16H23V15H22ZM23,15V16H24V15H23ZM25,15V16H26V15H25ZM26,15V16H27V15H26ZM27,15V16H28V15H27ZM28,15V16H29V15H28ZM4,16V17H5V16H4ZM6,16V17H7V16H6ZM10,16V17H11V16H10ZM12,16V17H13V16H12ZM18,16V17H19V16H18ZM19,16V17H20V16H19ZM20,16V17H21V16H20ZM22,16V17H23V16H22ZM24,16V17H25V16H24ZM25,16V17H26V16H25ZM27,16V17H28V16H27ZM0,17V18H1V17H0ZM3,17V18H4V17H3ZM5,17V18H6V17H5ZM8,17V18H9V17H8ZM9,17V18H10V17H9ZM11,17V18H12V17H11ZM14,17V18H15V17H14ZM20,17V18H21V17H20ZM22,17V18H23V17H22ZM23,17V18H24V17H23ZM26,17V18H27V17H26ZM0,18V19H1V18H0ZM1,18V19H2V18H1ZM4,18V19H5V18H4ZM6,18V19H7V18H6ZM7,18V19H8V18H7ZM9,18V19H10V18H9ZM13,18V19H14V18H13ZM16,18V19H17V18H16ZM17,18V19H18V18H17ZM22,18V19H23V18H22ZM26,18V19H27V18H26ZM27,18V19H28V18H27ZM1,19V20H2V19H1ZM2,19V20H3V19H2ZM4,19V20H5V19H4ZM7,19V20H8V19H7ZM8,19V20H9V19H8ZM9,19V20H10V19H9ZM12,19V20H13V19H12ZM14,19V20H15V19H14ZM15,19V20H16V19H15ZM16,19V20H17V19H16ZM17,19V20H18V19H17ZM18,19V20H19V19H18ZM19,19V20H20V19H19ZM22,19V20H23V19H22ZM23,19V20H24V19H23ZM24,19V20H25V19H24ZM28,19V20H29V19H28ZM1,20V21H2V20H1ZM2,20V21H3V20H2ZM5,20V21H6V20H5ZM6,20V21H7V20H6ZM7,20V21H8V20H7ZM10,20V21H11V20H10ZM11,20V21H12V20H11ZM12,20V21H13V20H12ZM14,20V21H15V20H14ZM16,20V21H17V20H16ZM20,20V21H21V20H20ZM21,20V21H22V20H21ZM22,20V21H23V20H22ZM23,20V21H24V20H23ZM24,20V21H25V20H24ZM26,20V21H27V20H26ZM28,20V21H29V20H28ZM8,21V22H9V21H8ZM9,21V22H10V21H9ZM11,21V22H12V21H11ZM14,21V22H15V21H14ZM16,21V22H17V21H16ZM20,21V22H21V21H20ZM24,21V22H25V21H24ZM25,21V22H26V21H25ZM26,21V22H27V21H26ZM0,22V23H1V22H0ZM1,22V23H2V22H1ZM2,22V23H3V22H2ZM3,22V23H4V22H3ZM4,22V23H5V22H4ZM5,22V23H6V22H5ZM6,22V23H7V22H6ZM11,22V23H12V22H11ZM12,22V23H13V22H12ZM13,22V23H14V22H13ZM14,22V23H15V22H14ZM19,22V23H20V22H19ZM20,22V23H21V22H20ZM22,22V23H23V22H22ZM24,22V23H25V22H24ZM27,22V23H28V22H27ZM28,22V23H29V22H28ZM0,23V24H1V23H0ZM6,23V24H7V23H6ZM9,23V24H10V23H9ZM10,23V24H11V23H10ZM11,23V24H12V23H11ZM12,23V24H13V23H12ZM13,23V24H14V23H13ZM15,23V24H16V23H15ZM20,23V24H21V23H20ZM24,23V24H25V23H24ZM26,23V24H27V23H26ZM27,23V24H28V23H27ZM0,24V25H1V24H0ZM2,24V25H3V24H2ZM3,24V25H4V24H3ZM4,24V25H5V24H4ZM6,24V25H7V24H6ZM8,24V25H9V24H8ZM9,24V25H10V24H9ZM10,24V25H11V24H10ZM13,24V25H14V24H13ZM14,24V25H15V24H14ZM15,24V25H16V24H15ZM17,24V25H18V24H17ZM18,24V25H19V24H18ZM20,24V25H21V24H20ZM21,24V25H22V24H21ZM22,24V25H23V24H22ZM23,24V25H24V24H23ZM24,24V25H25V24H24ZM26,24V25H27V24H26ZM28,24V25H29V24H28ZM0,25V26H1V25H0ZM2,25V26H3V25H2ZM3,25V26H4V25H3ZM4,25V26H5V25H4ZM6,25V26H7V25H6ZM11,25V26H12V25H11ZM13,25V26H14V25H13ZM16,25V26H17V25H16ZM18,25V26H19V25H18ZM19,25V26H20V25H19ZM20,25V26H21V25H20ZM21,25V26H22V25H21ZM22,25V26H23V25H22ZM24,25V26H25V25H24ZM27,25V26H28V25H27ZM0,26V27H1V26H0ZM2,26V27H3V26H2ZM3,26V27H4V26H3ZM4,26V27H5V26H4ZM6,26V27H7V26H6ZM8,26V27H9V26H8ZM9,26V27H10V26H9ZM10,26V27H11V26H10ZM13,26V27H14V26H13ZM14,26V27H15V26H14ZM15,26V27H16V26H15ZM17,26V27H18V26H17ZM19,26V27H20V26H19ZM20,26V27H21V26H20ZM26,26V27H27V26H26ZM27,26V27H28V26H27ZM0,27V28H1V27H0ZM6,27V28H7V27H6ZM8,27V28H9V27H8ZM9,27V28H10V27H9ZM13,27V28H14V27H13ZM17,27V28H18V27H17ZM20,27V28H21V27H20ZM23,27V28H24V27H23ZM26,27V28H27V27H26ZM0,28V29H1V28H0ZM1,28V29H2V28H1ZM2,28V29H3V28H2ZM3,28V29H4V28H3ZM4,28V29H5V28H4ZM5,28V29H6V28H5ZM6,28V29H7V28H6ZM8,28V29H9V28H8ZM11,28V29H12V28H11ZM12,28V29H13V28H12ZM13,28V29H14V28H13ZM14,28V29H15V28H14ZM15,28V29H16V28H15ZM18,28V29H19V28H18ZM23,28V29H24V28H23ZM24,28V29H25V28H24ZM25,28V29H26V28H25ZM26,28V29H27V28H26ZM27,28V29H28V28H27Z"/></svg>
